X:113
T:Barber Of Seville,The,aka. JBs.113
T:Quick Step. JBs.113
S:Jas.Blackshaw MS, 1837, N.Shropshire
A:North Shropshire
Z:T. Weatherall 2006
M:2/4
L:1/8
Q:1/4=100
R:a
K:G
g|dBce|d/c/B/A/ GA/B/|cBAG |d/e/d/^c/ dg|!
dBce|d/c/B/A/ GA/B/|AB/c/ DE/F/|â€fineâ€G2z||!
d/B/|gd/B/ gd/B/|gg/g/ gd|g/f/e/d/ c/B/A/G/|dd/d/ dd/B/|!
gd/B/ gd/B/|gg/g/ gd|g/f/e/d/ c/B/A/G/|â€DCâ€dd/d/ d|]

